client/src/assets/images/slash.svg

<svg id="egaoUHYy9LO1" xmlns="http://www.w3.org/2000/svg" xmlns:xlink="http://www.w3.org/1999/xlink" viewBox="0 0 32 75" shape-rendering="geometricPrecision" text-rendering="geometricPrecision"><g transform="matrix(.932301 0 0 0.908152 1.080027 3.452421)" mask="url(#egaoUHYy9LO4)"><path d="M10.7374,70.9174l-1.20092-.3836-.00592.0185-.00536.0187l1.2122.3464ZM8.79251,73.658l-.66819-1.0691-.03966.0247-.0377.0277.74555,1.0167Zm-6.63043-.4421l.83759-.9422-.01503-.0134-.01546-.0129-.8071.9685ZM0.835991,67.9116l-1.201439-.3821-.007965.025-.006916.0254l1.21632.3317ZM21.0809,4.25942l-1.196-.39868-.0028.00826-.0026.0083l1.2014.38212Zm1.9449-2.74058l.6994,1.049.0075-.00499.0074-.0051-.7143-1.03891Zm6.7189.44203l-.8376.94229.015.01336.0155.01288.8071-.96853Zm1.3261,5.30435l1.2009.38364.0083-.0258.0071-.02612-1.2163-.33172ZM9.5252,70.571c-.28231.9881-.76368,1.6196-1.40088,2.0179L9.4607,74.7271c1.2488-.7805,2.064-1.9761,2.489-3.4634L9.5252,70.571ZM8.04696,72.6413c-.6629.4861-1.40241.7284-2.26025.7284v2.5215c1.38179,0,2.64614-.4061,3.75136-1.2166L8.04696,72.6413Zm-2.26025.7284c-1.03123,0-1.94506-.3476-2.78704-1.096L1.32449,74.1582c1.27975,1.1376,2.78234,1.733,4.46222,1.733v-2.5215ZM2.96918,72.2474c-.76546-.6379-1.13766-1.4285-1.13766-2.4793h-2.521492c0,1.7782.688664,3.2861,2.044942,4.4164l1.61421-1.9371ZM1.83152,69.7681c0-.4629.06942-.9698.22079-1.5248l-2.432639-.6634c-.202255.7416-.309643,1.4724-.309643,2.1882h2.521492Zm.20591-1.4744L22.2824,4.64155L19.8795,3.8773L-0.365448,67.5295l2.402878.7642ZM22.277,4.6581c.3446-1.03386.8466-1.68921,1.4482-2.09026L22.3265,0.469839C21.16,1.24753,20.3654,2.41924,19.8849,3.86074l2.3921.79736Zm1.4631-2.10035c.7502-.51577,1.506-.75063,2.2915-.75063v-2.521484c-1.3362,0-2.5842.41345-3.72,1.194299L23.7401,2.55775Zm2.2915-.75063c1.1046,0,2.0445.3574,2.8755,1.09604l1.6752-1.88458c-1.2908-1.147347-2.8262-1.732944-4.5507-1.732944v2.521484Zm2.906,1.12228c.7654.63788,1.1376,1.42847,1.1376,2.4793h2.5215c0-1.77816-.6886-3.28613-2.0449-4.416361L28.9376,2.9294Zm1.1376,2.4793c0,.46292-.0694.96977-.2207,1.52479l2.4326.66345c.2022-.74159.3096-1.47242.3096-2.18824h-2.5215Zm-.2054,1.47288L9.53648,70.5338l2.40192.7672L32.2717,7.64886l-2.4019-.76728Z" fill="#00aee9"/><mask id="egaoUHYy9LO4" mask-type="luminance" x="-150%" y="-150%" height="400%" width="400%"><rect width="34" height="80" rx="0" ry="0" transform="translate(-1-1)" fill="#fff"/><path d="M10.7374,70.9174c-.3536,1.2377-1.00189,2.1512-1.94489,2.7406-.88406.6483-1.88599.9724-3.0058.9724-1.35555,0-2.56376-.4715-3.62463-1.4145-1.06087-.884-1.591308-2.0333-1.591308-3.4478c0-.5894.088406-1.2082.265218-1.8565L21.0809,4.25942c.4126-1.23768,1.0609-2.15121,1.9449-2.74058.943-.648307,1.945-.97246,3.0058-.97246c1.4145,0,2.6522.4715,3.7131,1.41449c1.0609.88406,1.5913,2.03333,1.5913,3.44783c0,.58937-.0884,1.20821-.2652,1.85652L10.7374,70.9174Z"/></mask></g></svg>

<svg width="32" height="80" viewBox="0 0 32 75" fill="none" xmlns="http://www.w3.org/2000/svg">
<mask id="path-1-outside-1_155_17313" maskUnits="userSpaceOnUse" x="-1" y="-1" width="34" height="77" fill="black">
<rect fill="white" x="-1" y="-1" width="34" height="80"/>
<path d="M10.7374 70.9174C10.3838 72.1551 9.73551 73.0686 8.79251 73.658C7.90845 74.3063 6.90652 74.6304 5.78671 74.6304C4.43116 74.6304 3.22295 74.1589 2.16208 73.2159C1.10121 72.3319 0.570772 71.1826 0.570772 69.7681C0.570772 69.1787 0.659178 68.5599 0.83599 67.9116L21.0809 4.25942C21.4935 3.02174 22.1418 2.10821 23.0258 1.51884C23.9688 0.870533 24.9708 0.54638 26.0316 0.54638C27.4461 0.54638 28.6838 1.01788 29.7447 1.96087C30.8056 2.84493 31.336 3.9942 31.336 5.4087C31.336 5.99807 31.2476 6.61691 31.0708 7.26522L10.7374 70.9174Z"/>
</mask>
<path d="M10.7374 70.9174L9.53648 70.5338L9.53056 70.5523L9.5252 70.571L10.7374 70.9174ZM8.79251 73.658L8.12432 72.5889L8.08466 72.6136L8.04696 72.6413L8.79251 73.658ZM2.16208 73.2159L2.99967 72.2737L2.98464 72.2603L2.96918 72.2474L2.16208 73.2159ZM0.835991 67.9116L-0.365448 67.5295L-0.373413 67.5545L-0.380329 67.5799L0.835991 67.9116ZM21.0809 4.25942L19.8849 3.86074L19.8821 3.869L19.8795 3.8773L21.0809 4.25942ZM23.0258 1.51884L23.7252 2.56784L23.7327 2.56285L23.7401 2.55775L23.0258 1.51884ZM29.7447 1.96087L28.9071 2.90316L28.9221 2.91652L28.9376 2.9294L29.7447 1.96087ZM31.0708 7.26522L32.2717 7.64886L32.28 7.62306L32.2871 7.59694L31.0708 7.26522ZM9.5252 70.571C9.24289 71.5591 8.76152 72.1906 8.12432 72.5889L9.4607 74.7271C10.7095 73.9466 11.5247 72.751 11.9497 71.2637L9.5252 70.571ZM8.04696 72.6413C7.38406 73.1274 6.64455 73.3697 5.78671 73.3697V75.8912C7.1685 75.8912 8.43285 75.4851 9.53807 74.6746L8.04696 72.6413ZM5.78671 73.3697C4.75548 73.3697 3.84165 73.0221 2.99967 72.2737L1.32449 74.1582C2.60424 75.2958 4.10683 75.8912 5.78671 75.8912V73.3697ZM2.96918 72.2474C2.20372 71.6095 1.83152 70.8189 1.83152 69.7681H-0.689972C-0.689972 71.5463 -0.00130844 73.0542 1.35497 74.1845L2.96918 72.2474ZM1.83152 69.7681C1.83152 69.3052 1.90094 68.7983 2.05231 68.2433L-0.380329 67.5799C-0.582584 68.3215 -0.689972 69.0523 -0.689972 69.7681H1.83152ZM2.03743 68.2937L22.2824 4.64155L19.8795 3.8773L-0.365448 67.5295L2.03743 68.2937ZM22.277 4.6581C22.6216 3.62424 23.1236 2.96889 23.7252 2.56784L22.3265 0.469839C21.16 1.24753 20.3654 2.41924 19.8849 3.86074L22.277 4.6581ZM23.7401 2.55775C24.4903 2.04198 25.2461 1.80712 26.0316 1.80712V-0.714364C24.6954 -0.714364 23.4474 -0.300914 22.3116 0.479935L23.7401 2.55775ZM26.0316 1.80712C27.1362 1.80712 28.0761 2.16452 28.9071 2.90316L30.5823 1.01858C29.2915 -0.128767 27.7561 -0.714364 26.0316 -0.714364V1.80712ZM28.9376 2.9294C29.703 3.56728 30.0752 4.35787 30.0752 5.4087H32.5967C32.5967 3.63054 31.9081 2.12257 30.5518 0.992339L28.9376 2.9294ZM30.0752 5.4087C30.0752 5.87162 30.0058 6.37847 29.8545 6.93349L32.2871 7.59694C32.4893 6.85535 32.5967 6.12452 32.5967 5.4087H30.0752ZM29.8698 6.88158L9.53648 70.5338L11.9384 71.301L32.2717 7.64886L29.8698 6.88158Z" fill="#00AEE9" mask="url(#path-1-outside-1_155_17313)"/>
</svg>
